X:21
T:Allluia Irlandais
M:9/8
L:1/8
K:G
D2D G3 ED C D3 D6 D2D G3 ED C|D3 D3 z2G|G2G AG A|B3B3-B zG|G2G AG A|
B3 B6|B3 A2G AG E|D3 D3|zG G E D C|D3 D6||(D2G) (G2A)|B3/A/G A3|
c2A B3/A/G|AGE D3|(D2G) (G2A)|B3/A/G A3|c2A B3/A/G|GAF G3||
|:G|G3/G/G EDE|G3 G3|B3/B/B AGA|B3 B zc|c3/c/c BAG|A3 A3:|
